X: 18
T: Woman Of The House, The
Z: Erik-Fiddler
S: https://thesession.org/tunes/321#setting52367
R: reel
M: 4/4
L: 1/8
K: Gmaj
|:GABG c2 BA|GBdg e/f/e dB|GABG A2 B/c/d|eA (3A/A/A/A eABA|
GABG [c2E2] BA|GBdg e/f/e dB|GABG A2 A/B/c|1dBAc BGAF:|2dBAc BGGz||
|:gf e/f/g fedf|efge dcBA|GABG A2 B/c/d| eA (3A/A/A/A eA A2|
gf e/f/g fedf|efge dcBA|GABG A2 A/B/c|1dBAc BGGz:|2dBAc BGAF|G2||

